assets/svg/icon_bookmarks_on.svg

<svg width="24" height="24" viewBox="0 0 24 24" fill="none" xmlns="http://www.w3.org/2000/svg">
<path fill-rule="evenodd" clip-rule="evenodd" d="M8.12437 3.63267C9.10652 3.49609 10.3621 3.49609 11.9567 3.49609H12.0453C13.6398 3.49609 14.8955 3.49609 15.8776 3.63267C16.8867 3.77321 17.6898 4.06815 18.3214 4.72532C18.9531 5.38051 19.2362 6.21384 19.371 7.257C19.502 8.27641 19.502 9.58085 19.502 11.2376V15.2677V15.2678C19.502 16.4594 19.502 17.4035 19.4288 18.1141C19.3575 18.8168 19.1996 19.4503 18.7528 19.8739C18.3946 20.2143 17.9401 20.4281 17.4568 20.4855C16.8501 20.5568 16.284 20.2598 15.7274 19.8541C15.1654 19.444 14.4849 18.8258 13.6271 18.0463L13.6167 18.037L13.5878 18.0112C13.1873 17.647 12.9157 17.4016 12.6904 17.2313C12.4728 17.067 12.338 17.0077 12.2263 16.9839C12.078 16.9542 11.9259 16.9542 11.7776 16.9839C11.6659 17.0077 11.5311 17.067 11.3135 17.2313C11.0881 17.4002 10.8211 17.643 10.4259 18.0023L10.4161 18.0112L10.3872 18.037C9.52442 18.8228 8.84076 19.4443 8.27651 19.8541C7.71803 20.2598 7.15377 20.5568 6.54714 20.4855C6.06377 20.4281 5.60928 20.2143 5.25109 19.8739C4.8043 19.4503 4.64831 18.8168 4.57513 18.1141C4.50195 17.4035 4.50195 16.4594 4.50195 15.2677V11.2376C4.50195 9.57887 4.50195 8.27641 4.63291 7.257C4.76964 6.21384 5.0508 5.38051 5.68054 4.72532C6.3122 4.06815 7.11718 3.77321 8.12437 3.63267ZM9.50195 6.65781C9.17058 6.65781 8.90195 6.92644 8.90195 7.25781C8.90195 7.58918 9.17058 7.85781 9.50195 7.85781H14.502C14.8333 7.85781 15.102 7.58918 15.102 7.25781C15.102 6.92644 14.8333 6.65781 14.502 6.65781H9.50195Z" fill="#0166FF"/>
</svg>

<svg xmlns="http://www.w3.org/2000/svg" width="24" height="24" fill="none"><path fill="#0166FF" fill-rule="evenodd" d="M8.124 3.633c.983-.137 2.238-.137 3.833-.137h.088c1.595 0 2.85 0 3.833.137 1.009.14 1.812.435 2.443 1.092.632.656.915 1.489 1.05 2.532.131 1.02.131 2.324.131 3.98v4.03c0 1.192 0 2.137-.073 2.847-.071.703-.23 1.336-.676 1.76-.358.34-.813.554-1.296.611-.607.072-1.173-.225-1.73-.63-.562-.411-1.242-1.03-2.1-1.809l-.01-.009-.03-.026c-.4-.364-.671-.61-.897-.78-.217-.164-.352-.223-.464-.247a1.1 1.1 0 0 0-.448 0c-.112.024-.247.083-.465.247-.225.17-.492.412-.887.771l-.01.01-.029.025c-.863.786-1.546 1.407-2.11 1.817-.559.406-1.123.703-1.73.631a2.27 2.27 0 0 1-1.296-.611c-.447-.424-.603-1.057-.676-1.76-.073-.71-.073-1.655-.073-2.846v-4.03c0-1.66 0-2.962.13-3.981.138-1.043.419-1.876 1.049-2.532.631-.657 1.436-.952 2.443-1.092m1.378 3.025a.6.6 0 0 0 0 1.2h5a.6.6 0 0 0 0-1.2z" clip-rule="evenodd"/></svg>
